images/ico-bicro-emploi-employeur.svg

<svg xmlns="http://www.w3.org/2000/svg" width="25" height="25" fill="none" viewBox="0 0 25 25"><circle cx="17.5" cy="7.5" r="6.25" fill="#006ADC"/><path fill="#000638" fill-rule="evenodd" d="M7.922 5.509c-.532.426-.867 1.051-.867 1.886 0 .86.35 1.85.93 2.625.582.778 1.343 1.27 2.134 1.27s1.551-.492 2.134-1.27c.58-.774.93-1.766.93-2.625 0-.835-.335-1.46-.867-1.886-.542-.434-1.314-.68-2.197-.68-.884 0-1.655.246-2.197.68m-.514-.65C8.128 4.285 9.093 4 10.118 4c1.027 0 1.992.284 2.711.86.73.584 1.178 1.448 1.178 2.535 0 1.061-.422 2.224-1.096 3.125-.672.897-1.65 1.6-2.792 1.6-1.143 0-2.12-.703-2.792-1.6-.675-.9-1.096-2.064-1.096-3.125 0-1.087.448-1.951 1.177-2.535m6.9 4.53a.79.79 0 0 1 .78-.784h3.133c.405 0 .779.316.779.784v1.848a.79.79 0 0 1-.78.784h-.666c-.613.693-1.21.936-1.71.96a1.64 1.64 0 0 1-.805-.169l-.054-.03-.018-.012-.007-.004-.003-.002h-.001v-.001l.23-.344-.231.343a.415.415 0 0 1 .046-.714.3.3 0 0 0 .046-.028.79.79 0 0 1-.739-.784zm1.74 2.72c.255-.076.6-.276.997-.765a.41.41 0 0 1 .319-.153h.811V9.435h-3.042v1.756h.787a.416.416 0 0 1 .268.73l-.018.02-.055.073-.053.076zm-8.186 1.078a.416.416 0 0 1-.244.532l-2.325.862-.007.002a2.21 2.21 0 0 0-1.462 2.096v2.906c0 .23-.184.415-.412.415A.414.414 0 0 1 3 19.585V16.68c0-1.277.79-2.447 2.01-2.878l2.323-.86c.213-.08.45.03.53.245m4.602-.115a.41.41 0 0 1 .465-.131l2.327.862a3.07 3.07 0 0 1 2.006 2.876v2.906a.411.411 0 0 1-.757.227l-4.063-6.255a.42.42 0 0 1 .022-.486m1.35 1.08 2.624 4.04V16.68c0-.931-.575-1.763-1.47-2.098zm-5.689-.031a.57.57 0 0 1 .671-.022l.706.507c.122.088.176.218.145.345l-.65 2.618 1.002.594 1.001-.594-.65-2.619c-.03-.126.024-.256.146-.344l.706-.507a.57.57 0 0 1 .671.022c.178.151.166.386-.028.525l-.51.367.655 2.642c.035.138-.035.28-.179.366l-1.524.904a.59.59 0 0 1-.576 0l-1.524-.904c-.144-.085-.214-.228-.18-.366l.656-2.642-.51-.367c-.194-.139-.206-.374-.028-.525" clip-rule="evenodd"/></svg>

<svg xmlns="http://www.w3.org/2000/svg" width="25" height="25" fill="none" viewBox="0 0 25 25"><circle cx="17.5" cy="7.5" r="6.25" fill="#006adc"/><path fill="#000638" fill-rule="evenodd" d="M7.922 5.509C7.39 5.935 7.055 6.56 7.055 7.395 7.055 8.254 7.405 9.246 7.985 10.02 8.567 10.798 9.328 11.29 10.119 11.29 10.91 11.29 11.67 10.798 12.253 10.02 12.833 9.246 13.182 8.254 13.182 7.395 13.182 6.56 12.848 5.935 12.316 5.509 11.774 5.075 11.002 4.83 10.119 4.83 9.235 4.83 8.464 5.075 7.922 5.509ZM7.408 4.86C8.127 4.284 9.093 4 10.119 4 11.145 4 12.111 4.284 12.829 4.86 13.558 5.444 14.007 6.308 14.007 7.395 14.007 8.456 13.585 9.619 12.911 10.52 12.239 11.417 11.261 12.119 10.119 12.119 8.976 12.119 7.999 11.417 7.327 10.52 6.652 9.619 6.231 8.456 6.231 7.395 6.231 6.308 6.679 5.444 7.408 4.86ZM14.308 9.389C14.308 8.963 14.664 8.605 15.088 8.605H18.221C18.626 8.605 19 8.921 19 9.389V11.237C19 11.663 18.644 12.021 18.221 12.021H17.554C16.941 12.714 16.344 12.957 15.844 12.981 15.585 12.993 15.372 12.944 15.22 12.891 15.144 12.864 15.084 12.835 15.039 12.812 15.017 12.8 14.999 12.79 14.985 12.781 14.978 12.777 14.972 12.773 14.967 12.77L14.96 12.766 14.957 12.764 14.956 12.763 14.955 12.763C14.955 12.763 14.955 12.762 15.186 12.419L14.955 12.762C14.833 12.68 14.765 12.539 14.774 12.392 14.784 12.245 14.87 12.114 15.001 12.048 15.016 12.04 15.031 12.031 15.047 12.02 14.641 11.997 14.308 11.649 14.308 11.237V9.389ZM16.048 12.11C16.303 12.033 16.647 11.833 17.045 11.344 17.123 11.247 17.24 11.191 17.364 11.191H18.176V9.435H15.133V11.191H15.92C16.092 11.191 16.247 11.299 16.306 11.462 16.366 11.625 16.319 11.808 16.188 11.921 16.191 11.918 16.186 11.923 16.17 11.941 16.156 11.959 16.138 11.983 16.115 12.014 16.103 12.031 16.084 12.058 16.062 12.09 16.057 12.096 16.053 12.103 16.048 12.11ZM7.862 13.187C7.941 13.401 7.832 13.64 7.618 13.719L5.293 14.581 5.286 14.583C4.404 14.893 3.824 15.741 3.824 16.679V19.585C3.824 19.814 3.64 20 3.412 20 3.185 20 3 19.814 3 19.585V16.679C3 15.402 3.789 14.232 5.011 13.801L7.333 12.941C7.546 12.862 7.783 12.972 7.862 13.187ZM12.464 13.072C12.575 12.932 12.763 12.879 12.929 12.941L15.256 13.803C16.467 14.256 17.262 15.394 17.262 16.679V19.585C17.262 19.769 17.142 19.93 16.968 19.983 16.793 20.035 16.605 19.966 16.505 19.812L12.442 13.557C12.345 13.407 12.354 13.211 12.464 13.072ZM13.814 14.153 16.438 18.192V16.679C16.438 15.748 15.863 14.916 14.969 14.581 14.969 14.581 14.969 14.581 14.968 14.581L13.814 14.153ZM8.126 14.12C8.303 13.969 8.604 13.959 8.797 14.098L9.503 14.605C9.625 14.693 9.679 14.823 9.648 14.95L8.999 17.568 10 18.162 11.001 17.568 10.352 14.95C10.321 14.823 10.375 14.693 10.497 14.605L11.203 14.098C11.396 13.959 11.697 13.969 11.874 14.12 12.052 14.271 12.04 14.506 11.846 14.645L11.336 15.012 11.991 17.654C12.026 17.792 11.956 17.935 11.812 18.02L10.288 18.924C10.118 19.025 9.882 19.025 9.712 18.924L8.188 18.02C8.044 17.935 7.974 17.792 8.009 17.654L8.664 15.012 8.154 14.645C7.96 14.506 7.948 14.271 8.126 14.12Z" clip-rule="evenodd"/></svg>
